src/topics/icons/craft.svg

<svg height="269" preserveAspectRatio="xMidYMid" viewBox="0 0 512 269" width="512" xmlns="http://www.w3.org/2000/svg"><g fill="#cb5546"><path d="m466.843327 114.369745h40.136217l4.674752-24.5432673h-40.136217l6.838926-35.9002398h-.133612l-30.438665 23.8702615-2.28789 12.0299783h-31.527352l9.21589-48.3739401c2.170774-18.2552819 29.965253-12.7277271 34.103908-11.691826l4.443818-23.30942333c-49.982226-19.21365527-64.573914 35.00124933-64.573914 35.00124933l-9.210943 48.3739401h-.161653l-31.301367 24.5432673h26.788269l-29.432456 154.502663h26.026189l29.427508-154.502663h31.527352l-11.523574 60.476498c-7.325537 44.032392 36.777786 39.210834 50.851524 36.380251l4.39928-23.061995c-33.668433 7.604306-29.231214-13.318256-29.231214-13.318256z"/><path d="m312.908101 177.787344c-27.081886 27.787881-44.421681 9.588683-44.421681 9.588683-11.739662-11.429552 1.237143-23.167564 1.237143-23.167564 17.912181-16.369877 45.32397 1.614884 45.32397 1.614884zm5.991071-33.515028s-37.285841-19.136128-63.386258 2.174072c0 0-15.286139 10.194058-15.286139 30.578875 0 20.389766 18.685808 31.349204 18.685808 31.349204s28.102939 14.829221 50.114188-8.87114l-2.42975 11.030367h24.609249l15.469236-73.379074c11.6077-72.4042057-74.654156-46.7409117-74.654156-46.7409117l-4.704443 26.0311377c63.592448-27.7169512 52.880439 20.571213 52.880439 20.571213z"/><path d="m249.977112 89.8990568c-20.06811.2094896-38.306897 11.4097572-38.306897 11.4097572l2.32583-10.9858296h-24.087999l-21.978257 120.4350446h24.614196l14.9018-79.233235c11.013871-22.377442 38.242564-15.426348 38.242564-15.426348z"/><path d="m156.056515 38.287101c1.243741.9418782 2.42645 1.9381907 3.581116 2.9493489l18.684159-14.6560205.582282-.7571316c-2.861925-2.8899659-5.934988-5.6248767-9.257129-8.1354522-42.874427-32.3603614-107.6594814-18.81447048-144.6929442 30.2572183-37.0351124 49.0700393-32.3009786 115.0724431 10.5734486 147.4377521 35.0045483 26.420425 84.6090336 22.230634 121.7975506-6.903258l-.039588-.074229-17.785168-13.948374c-27.555298 17.715888-61.7416817 18.990969-86.4713451.328255-32.9343958-24.855028-36.5682971-75.5630437-8.1206066-113.2596151 28.4509895-37.691623 78.2154787-48.0968202 111.1482247-23.2384939"/></g></svg>

<?xml version="1.0" encoding="UTF-8" standalone="no"?>
<svg width="512px" height="269px" viewBox="0 0 512 269" version="1.1" xmlns="http://www.w3.org/2000/svg" xmlns:xlink="http://www.w3.org/1999/xlink" preserveAspectRatio="xMidYMid">
	<g fill="#CB5546">
		<path d="M466.843327,114.369745 L506.979544,114.369745 L511.654296,89.8264777 L471.518079,89.8264777 L478.357005,53.9262379 L478.223393,53.9262379 L447.784728,77.7964994 L445.496838,89.8264777 L413.969486,89.8264777 L423.185376,41.4525376 C425.35615,23.1972557 453.150629,28.7248105 457.289284,29.7607116 L461.733102,6.45128827 C411.750876,-12.762367 397.159188,41.4525376 397.159188,41.4525376 L387.948245,89.8264777 L387.786592,89.8264777 L356.485225,114.369745 L383.273494,114.369745 L353.841038,268.872408 L379.867227,268.872408 L409.294735,114.369745 L440.822087,114.369745 L429.298513,174.846243 C421.972976,218.878635 466.076299,214.057077 480.150037,211.226494 L484.549317,188.164499 C450.880884,195.768805 455.318103,174.846243 455.318103,174.846243 L466.843327,114.369745"></path>
		<path d="M312.908101,177.787344 C285.826215,205.575225 268.48642,187.376027 268.48642,187.376027 C256.746758,175.946475 269.723563,164.208463 269.723563,164.208463 C287.635744,147.838586 315.047533,165.823347 315.047533,165.823347 L312.908101,177.787344 L312.908101,177.787344 Z M318.899172,144.272316 C318.899172,144.272316 281.613331,125.136188 255.512914,146.446388 C255.512914,146.446388 240.226775,156.640446 240.226775,177.025263 C240.226775,197.415029 258.912583,208.374467 258.912583,208.374467 C258.912583,208.374467 287.015522,223.203688 309.026771,199.503327 L306.597021,210.533694 L331.20627,210.533694 L346.675506,137.15462 C358.283206,64.7504143 272.02135,90.4137083 272.02135,90.4137083 L267.316907,116.444846 C330.909355,88.7278948 320.197346,137.016059 320.197346,137.016059 L318.899172,144.272316 L318.899172,144.272316 Z"></path>
		<path d="M249.977112,89.8990568 C229.909002,90.1085464 211.670215,101.308814 211.670215,101.308814 L213.996045,90.3229844 L189.908046,90.3229844 L167.929789,210.758029 L192.543985,210.758029 L207.445785,131.524794 C218.459656,109.147352 245.688349,116.098446 245.688349,116.098446 L249.977112,89.8990568"></path>
		<path d="M156.056515,38.287101 C157.300256,39.2289792 158.482965,40.2252917 159.637631,41.2364499 L178.32179,26.5804294 L178.904072,25.8232978 C176.042147,22.9333319 172.969084,20.1984211 169.646943,17.6878456 C126.772516,-14.6725158 61.9874616,-1.12662488 24.9539988,47.9450639 C-12.0811136,97.0151032 -7.3469798,163.017507 35.5274474,195.382816 C70.5319957,221.803241 120.136481,217.61345 157.324998,188.479558 L157.28541,188.405329 L139.500242,174.456955 C111.944944,192.172843 77.7585603,193.447924 53.0288969,174.78521 C20.0945011,149.930182 16.4605998,99.2221663 44.9082903,61.5255949 C73.3592798,23.8339719 123.123769,13.4287747 156.056515,38.287101"></path>
	</g>
</svg>
